X: 567
T: Dila Çunem
C: Mahmut Çelebi (Diyarbakırlı)
O: Turkey
F: http://compmusic.upf.edu/node/140
N: ussak--yuruksemai--yuruksemai--dila_cunem--diyarbakirli_mahmut_celebi
N: makam= ussak
N: form= yuruksemai
N: usul= yuruksemai = 6/8
M: 6/8
L: 1/16
K: C _2/4B   
Q: 1/4=156
%%MIDI tuningsystem comma53
z4 d2c2 c2_1/4B2  | _1/4B2A2 B2A2 G4  | \
w:   |   | 
z4 d2c2 c2_1/4B2  | _1/4B2A2 B2A2 G4  | \
w:   |   | 
z4 c4 c2_1/4B2  | 
w:   | 
d4 d4 c2_1/4B2  | _1/4B2A2 A4 A4  | G4 A6z2  | \
w:   |   |   | 
z4 d2c2 c2_1/4B2  | _1/4B2A2 B2A2 G4  | 
w:   |   | 
z4 d2c2 c2_1/4B2  | _1/4B2A2 B2A2 G4  | \
w:   |   | 
z4 c4 c2_1/4B2  | d4 d4 c2_1/4B2  | _1/4B2A2 A2G2 G2^F2  | 
w:   |   |   | 
G8 z4  | z4 d2c2 d4  | e4 e6d2  | e2^f2 g2a2 g2=f2  | \
w:   |   |   |   | 
e2d2 d4 d4  | c2d2 e2f2 e2d2  | 
w:   |   | 
c2_1/4B2 c8  | _1/4B2c2 d2e2 d2c2  | \
w:   |   | 
_1/4B2A2 A4 e4  | z4 d2c2 d4  | e4 e6d2  | \
w:   |   |   | 
e2^f2 g2a2 g2=f2  | 
w:   | 
e2d2 d8  | c2d2 e2f2 e2d2  | c2_1/4B2 c8  | \
w:   |   |   | 
_1/4B2c2 d2c2 d2c2  | _1/4B4 B3A G2A2  | 
w:   |   | 
G4 G4 G4  | A8 G4  | z4 d2c2 c2_1/4B2  | \
w:   |   |   | 
_1/4B2A2 B2A2 G4  | z4 c4 c2_1/4B2  | \
w:   |   | 
d8 c2_1/4B2  | 
w:   | 
_1/4B2A2 A8  | G4 A6z2  | g8 g4  | g4 g6f2  | \
w:   |   |   |   | 
g4 a4 a8 a4 g2^f2  | ^f8 f4  | ^f4 f4 e2d2  | 
w:   |   |   | 
d8 d8 d4 z4  | d8 d4  | d4 c'4 _1/4b4  | \
w:   |   |   | 
a4 g4 ^f4  | e2^f2 e4 f4  | g8 g4  | g3^f f3e d2e2  | 
w:   |   |   |   | 
d4 e4 e8 e4 z4  | e4 e2d2 c=Bc2  | d4 d4 z4  | \
w:   |   |   | 
d4 c2=B2 A^GA2  | =B4 B4 z4  | 
w:   |   | 
=B4 B2A2 G^FG2  | A4 A4 z4  | G2^F2 E4 F4  | \
w:   |   |   | 
G8 z4  | z4 d2c2 c2_1/4B2  | _1/4B2A2 B2A2 G4  | 
w:   |   |   | 
z4 d2c2 c2_1/4B2  | _1/4B2A2 B2A2 G4  | \
w:   |   | 
z4 c4 c2_1/4B2  | d4 d4 c2_1/4B2  | _1/4B2A2 A2G2 G2^F2  | 
w:   |   |   | 
G8 z4  | z4 d2c2 d4  | e4 e6d2  | e2^f2 g2a2 g2=f2  | \
w:   |   |   |   | 
e2d2 d4 d4  | c2d2 e2f2 e2d2  | 
w:   |   | 
c2_1/4B2 c8  | _1/4B2c2 d2e2 d2c2  | \
w:   |   | 
_1/4B2A2 A4 e4  | z4 d2c2 d4  | e4 e6d2  | \
w:   |   |   | 
e2^f2 g2a2 g2=f2  | 
w:   | 
e2d2 d8  | c2d2 e2f2 e2d2  | c2_1/4B2 c8  | \
w:   |   |   | 
_1/4B2c2 d2c2 d2c2  | _1/4B4 B3A G2A2  | 
w:   |   | 
G4 G4 G4  | A8 G4  | z4 d2c2 c2_1/4B2  | \
w:   |   |   | 
_1/4B2A2 B2A2 G4  | z4 c4 c2_1/4B2  | \
w:   |   | 
d8 c2_1/4B2  | 
w:   | 
_1/4B2A2 A8  | G4 A6z2  | |


